public/static/images/Logo2.svg

<?xml version="1.0" encoding="UTF-8" standalone="no"?><!DOCTYPE svg PUBLIC "-//W3C//DTD SVG 1.1//EN" "http://www.w3.org/Graphics/SVG/1.1/DTD/svg11.dtd"><svg width="100%" height="100%" viewBox="0 0 500 500" version="1.1" xmlns="http://www.w3.org/2000/svg" xmlns:xlink="http://www.w3.org/1999/xlink" xml:space="preserve" xmlns:serif="http://www.serif.com/" style="fill-rule:evenodd;clip-rule:evenodd;stroke-linejoin:round;stroke-miterlimit:2;"><rect id="Artboard2" x="0" y="0" width="500" height="500" style="fill:none;"/><path d="M119.849,343.853l-8.8,-8.8l0,-197.112l77.252,0c15.732,0 28.349,2.084 37.854,6.251c9.504,4.167 16.948,10.581 22.333,19.242c5.384,8.662 8.076,17.722 8.076,27.179c0,8.802 -2.388,17.089 -7.163,24.861c-4.776,7.772 -11.986,14.046 -21.631,18.821c12.454,3.652 22.028,9.879 28.724,18.681c6.695,8.802 10.042,19.196 10.042,31.182c0,9.645 -2.036,18.611 -6.11,26.898c-4.073,8.287 -9.106,14.678 -15.099,19.172c-5.993,4.495 -13.507,7.889 -22.543,10.183c-9.036,2.295 -20.109,3.442 -33.219,3.442l-69.716,0Zm18.449,-119.39l44.525,0c12.08,0 20.741,-0.795 25.985,-2.387c6.929,-2.06 12.15,-5.478 15.661,-10.254c3.512,-4.775 5.267,-10.768 5.267,-17.978c0,-6.836 -1.638,-12.852 -4.916,-18.049c-3.277,-5.197 -7.959,-8.755 -14.045,-10.675c-6.087,-1.92 -16.528,-2.879 -31.323,-2.879l-41.154,0l0,62.222Zm0,95.09l51.267,0c8.802,0 14.983,-0.327 18.541,-0.983c6.274,-1.123 11.517,-2.996 15.731,-5.618c4.214,-2.622 7.679,-6.438 10.394,-11.447c2.716,-5.01 4.073,-10.792 4.073,-17.347c0,-7.678 -1.966,-14.35 -5.899,-20.015c-3.933,-5.665 -9.387,-9.645 -16.363,-11.939c-6.976,-2.294 -17.019,-3.441 -30.128,-3.441l-47.616,0l0,70.79Z" style="fill:#4696fe;fill-rule:nonzero;"/><path d="M112.659,336.647l-12.444,-12.444l0,-193.468l77.252,0c15.732,0 28.349,2.084 37.854,6.251c9.504,4.166 16.948,10.581 22.333,19.242c5.384,8.662 8.076,17.721 8.076,27.179c0,8.802 -2.388,17.089 -7.163,24.861c-4.776,7.772 -11.986,14.046 -21.631,18.821c12.454,3.652 22.029,9.879 28.724,18.681c6.695,8.802 10.042,19.196 10.042,31.182c0,9.645 -2.036,18.611 -6.109,26.898c-4.074,8.287 -9.107,14.677 -15.1,19.172c-5.993,4.495 -13.507,7.889 -22.543,10.183c-9.036,2.294 -20.109,3.442 -33.219,3.442l-66.072,0Zm14.805,-119.39l44.525,0c12.08,0 20.741,-0.796 25.985,-2.388c6.929,-2.06 12.15,-5.477 15.661,-10.253c3.512,-4.776 5.267,-10.768 5.267,-17.979c0,-6.835 -1.638,-12.851 -4.916,-18.048c-3.277,-5.197 -7.959,-8.756 -14.045,-10.675c-6.087,-1.92 -16.528,-2.88 -31.323,-2.88l-41.154,0l0,62.223Zm0,95.09l51.267,0c8.802,0 14.983,-0.327 18.541,-0.983c6.274,-1.124 11.517,-2.996 15.731,-5.618c4.214,-2.622 7.679,-6.438 10.394,-11.448c2.716,-5.009 4.073,-10.791 4.073,-17.346c0,-7.678 -1.966,-14.35 -5.899,-20.015c-3.933,-5.665 -9.387,-9.645 -16.363,-11.939c-6.976,-2.294 -17.019,-3.442 -30.128,-3.442l-47.616,0l0,70.791Z" style="fill:#ed5024;fill-rule:nonzero;"/><path d="M248.493,376.784l-8.795,-8.794l0,-197.117l70.931,0c16.012,0 28.232,0.983 36.66,2.95c11.798,2.715 21.864,7.631 30.198,14.748c10.862,9.176 18.985,20.904 24.37,35.184c5.384,14.28 8.076,30.597 8.076,48.95c0,15.638 -1.826,29.496 -5.478,41.576c-3.652,12.079 -8.334,22.075 -14.046,29.987c-5.712,7.913 -11.962,14.14 -18.751,18.681c-6.789,4.542 -14.982,7.983 -24.58,10.324c-9.598,2.341 -20.624,3.511 -33.078,3.511l-65.507,0Zm18.454,-24.299l43.963,0c13.578,0 24.229,-1.264 31.954,-3.792c7.725,-2.529 13.882,-6.087 18.471,-10.675c6.461,-6.461 11.494,-15.146 15.099,-26.055c3.605,-10.909 5.407,-24.135 5.407,-39.679c0,-21.537 -3.534,-38.088 -10.604,-49.652c-7.07,-11.565 -15.661,-19.313 -25.774,-23.246c-7.304,-2.809 -19.056,-4.214 -35.255,-4.214l-43.261,0l0,157.313Z" style="fill:#4696fe;fill-rule:nonzero;"/><path d="M240.654,368.86l-11.859,-11.86l0,-4.353l0,-189.699l70.931,0c16.012,0 28.232,0.983 36.66,2.95c11.798,2.715 21.864,7.631 30.198,14.748c10.862,9.177 18.985,20.905 24.37,35.185c5.384,14.28 8.076,30.596 8.076,48.949c0,15.638 -1.826,29.496 -5.478,41.576c-3.652,12.079 -8.334,22.075 -14.046,29.988c-5.712,7.912 -11.962,14.139 -18.751,18.681c-6.789,4.541 -14.982,7.982 -24.58,10.323c-9.598,2.341 -20.624,3.512 -33.078,3.512l-57.543,0l-4.9,0Zm15.39,-24.3l43.963,0c13.578,0 24.229,-1.264 31.954,-3.792c7.725,-2.528 13.882,-6.086 18.47,-10.675c6.461,-6.461 11.495,-15.146 15.1,-26.055c3.605,-10.909 5.407,-24.135 5.407,-39.679c0,-21.537 -3.535,-38.088 -10.604,-49.652c-7.07,-11.564 -15.661,-19.313 -25.774,-23.246c-7.304,-2.809 -19.056,-4.213 -35.255,-4.213l-43.261,0l0,157.312Z" style="fill:#ed5024;fill-rule:nonzero;"/><path d="M232.814,360.946l-13.912,-13.912l0,-192l70.932,0c16.012,0 28.232,0.984 36.659,2.95c11.799,2.716 21.865,7.632 30.199,14.748c10.862,9.177 18.985,20.905 24.369,35.185c5.384,14.28 8.076,30.596 8.076,48.949c0,15.638 -1.825,29.497 -5.477,41.576c-3.652,12.079 -8.334,22.075 -14.046,29.988c-5.712,7.912 -11.963,14.139 -18.751,18.681c-6.789,4.541 -14.982,7.982 -24.58,10.323c-9.598,2.341 -20.624,3.512 -33.078,3.512l-60.391,0Zm13.337,-24.299l43.964,0c13.577,0 24.229,-1.265 31.954,-3.793c7.725,-2.528 13.882,-6.086 18.47,-10.675c6.461,-6.461 11.494,-15.146 15.099,-26.055c3.605,-10.908 5.408,-24.135 5.408,-39.679c0,-21.537 -3.535,-38.087 -10.605,-49.652c-7.069,-11.564 -15.661,-19.313 -25.774,-23.246c-7.304,-2.809 -19.055,-4.213 -35.255,-4.213l-43.261,0l0,157.313Z" style="fill-rule:nonzero;"/><path d="M105.278,329.127l-15.211,-15.211l0,-190.7l77.252,0c15.731,0 28.349,2.083 37.853,6.25c9.505,4.167 16.949,10.581 22.333,19.243c5.384,8.661 8.076,17.721 8.076,27.178c0,8.802 -2.387,17.089 -7.163,24.861c-4.775,7.772 -11.986,14.046 -21.63,18.822c12.454,3.652 22.028,9.879 28.723,18.681c6.695,8.802 10.043,19.196 10.043,31.181c0,9.645 -2.037,18.611 -6.11,26.898c-4.073,8.287 -9.106,14.678 -15.099,19.173c-5.993,4.494 -13.508,7.889 -22.544,10.183c-9.036,2.294 -20.109,3.441 -33.218,3.441l-63.305,0Zm12.038,-119.389l44.525,0c12.079,0 20.741,-0.796 25.985,-2.388c6.929,-2.06 12.149,-5.478 15.661,-10.253c3.511,-4.776 5.267,-10.769 5.267,-17.979c0,-6.836 -1.639,-12.852 -4.916,-18.049c-3.277,-5.197 -7.959,-8.755 -14.046,-10.675c-6.086,-1.919 -16.527,-2.879 -31.322,-2.879l-41.154,0l0,62.223Zm0,95.09l51.267,0c8.802,0 14.982,-0.328 18.54,-0.983c6.274,-1.124 11.518,-2.997 15.732,-5.619c4.213,-2.622 7.678,-6.437 10.394,-11.447c2.715,-5.01 4.073,-10.792 4.073,-17.347c0,-7.678 -1.966,-14.35 -5.899,-20.015c-3.933,-5.665 -9.388,-9.645 -16.364,-11.939c-6.976,-2.294 -17.018,-3.441 -30.128,-3.441l-47.615,0l0,70.791Z" style="fill-rule:nonzero;"/></svg>

<?xml version="1.0" encoding="UTF-8" standalone="no"?>
<!DOCTYPE svg PUBLIC "-//W3C//DTD SVG 1.1//EN" "http://www.w3.org/Graphics/SVG/1.1/DTD/svg11.dtd">
<svg width="100%" height="100%" viewBox="0 0 500 500" version="1.1" xmlns="http://www.w3.org/2000/svg" xmlns:xlink="http://www.w3.org/1999/xlink" xml:space="preserve" xmlns:serif="http://www.serif.com/" style="fill-rule:evenodd;clip-rule:evenodd;stroke-linejoin:round;stroke-miterlimit:2;">
    <rect id="Artboard2" x="0" y="0" width="500" height="500" style="fill:none;"/>
    <g transform="matrix(1.38553,0,0,1.38553,-96.3819,-96.3819)">
        <path d="M119.849,343.853L111.049,335.053L111.049,137.941L188.301,137.941C204.033,137.941 216.65,140.025 226.155,144.192C235.659,148.359 243.103,154.773 248.488,163.434C253.872,172.096 256.564,181.156 256.564,190.613C256.564,199.415 254.176,207.702 249.401,215.474C244.625,223.246 237.415,229.52 227.77,234.295C240.224,237.947 249.798,244.174 256.494,252.976C263.189,261.778 266.536,272.172 266.536,284.158C266.536,293.803 264.5,302.769 260.426,311.056C256.353,319.343 251.32,325.734 245.327,330.228C239.334,334.723 231.82,338.117 222.784,340.411C213.748,342.706 202.675,343.853 189.565,343.853L119.849,343.853ZM138.298,224.463L182.823,224.463C194.903,224.463 203.564,223.668 208.808,222.076C215.737,220.016 220.958,216.598 224.469,211.822C227.981,207.047 229.736,201.054 229.736,193.844C229.736,187.008 228.098,180.992 224.82,175.795C221.543,170.598 216.861,167.04 210.775,165.12C204.688,163.2 194.247,162.241 179.452,162.241L138.298,162.241L138.298,224.463ZM138.298,319.553L189.565,319.553C198.367,319.553 204.548,319.226 208.106,318.57C214.38,317.447 219.623,315.574 223.837,312.952C228.051,310.33 231.516,306.514 234.231,301.505C236.947,296.495 238.304,290.713 238.304,284.158C238.304,276.48 236.338,269.808 232.405,264.143C228.472,258.478 223.018,254.498 216.042,252.204C209.066,249.91 199.023,248.763 185.914,248.763L138.298,248.763L138.298,319.553Z" style="fill-rule:nonzero;"/>
    </g>
    <g transform="matrix(1.38553,0,0,1.38553,-96.3819,-96.3819)">
        <path d="M112.659,336.647L100.215,324.203L100.215,130.735L177.467,130.735C193.199,130.735 205.816,132.819 215.321,136.986C224.825,141.152 232.269,147.567 237.654,156.228C243.038,164.89 245.73,173.949 245.73,183.407C245.73,192.209 243.342,200.496 238.567,208.268C233.791,216.04 226.581,222.314 216.936,227.089C229.39,230.741 238.965,236.968 245.66,245.77C252.355,254.572 255.702,264.966 255.702,276.952C255.702,286.597 253.666,295.563 249.593,303.85C245.519,312.137 240.486,318.527 234.493,323.022C228.5,327.517 220.986,330.911 211.95,333.205C202.914,335.499 191.841,336.647 178.731,336.647L112.659,336.647ZM127.464,217.257L171.989,217.257C184.069,217.257 192.73,216.461 197.974,214.869C204.903,212.809 210.124,209.392 213.635,204.616C217.147,199.84 218.902,193.848 218.902,186.637C218.902,179.802 217.264,173.786 213.986,168.589C210.709,163.392 206.027,159.833 199.941,157.914C193.854,155.994 183.413,155.034 168.618,155.034L127.464,155.034L127.464,217.257ZM127.464,312.347L178.731,312.347C187.533,312.347 193.714,312.02 197.272,311.364C203.546,310.24 208.789,308.368 213.003,305.746C217.217,303.124 220.682,299.308 223.397,294.298C226.113,289.289 227.47,283.507 227.47,276.952C227.47,269.274 225.504,262.602 221.571,256.937C217.638,251.272 212.184,247.292 205.208,244.998C198.232,242.704 188.189,241.556 175.08,241.556L127.464,241.556L127.464,312.347Z" style="fill:white;fill-rule:nonzero;"/>
    </g>
    <g transform="matrix(1.38553,0,0,1.38553,-96.3819,-96.3819)">
        <path d="M248.493,376.784L239.698,367.99L239.698,170.873L310.629,170.873C326.641,170.873 338.861,171.856 347.289,173.823C359.087,176.538 369.153,181.454 377.487,188.571C388.349,197.747 396.472,209.475 401.857,223.755C407.241,238.035 409.933,254.352 409.933,272.705C409.933,288.343 408.107,302.201 404.455,314.281C400.803,326.36 396.121,336.356 390.409,344.268C384.697,352.181 378.447,358.408 371.658,362.949C364.869,367.491 356.676,370.932 347.078,373.273C337.48,375.614 326.454,376.784 314,376.784L248.493,376.784ZM266.947,352.485L310.91,352.485C324.488,352.485 335.139,351.221 342.864,348.693C350.589,346.164 356.746,342.606 361.335,338.018C367.796,331.557 372.829,322.872 376.434,311.963C380.039,301.054 381.841,287.828 381.841,272.284C381.841,250.747 378.307,234.196 371.237,222.632C364.167,211.067 355.576,203.319 345.463,199.386C338.159,196.577 326.407,195.172 310.208,195.172L266.947,195.172L266.947,352.485Z" style="fill-rule:nonzero;"/>
    </g>
    <g transform="matrix(1.38553,0,0,1.38553,-96.3819,-96.3819)">
        <path d="M240.654,368.86L228.795,357L228.795,162.948L299.726,162.948C315.738,162.948 327.958,163.931 336.386,165.898C348.184,168.613 358.25,173.529 366.584,180.646C377.446,189.823 385.569,201.551 390.954,215.831C396.338,230.111 399.03,246.427 399.03,264.78C399.03,280.418 397.204,294.276 393.552,306.356C389.9,318.435 385.218,328.431 379.506,336.344C373.794,344.256 367.544,350.483 360.755,355.025C353.966,359.566 345.773,363.007 336.175,365.348C326.577,367.689 315.551,368.86 303.097,368.86L240.654,368.86ZM256.044,344.56L300.007,344.56C313.585,344.56 324.236,343.296 331.961,340.768C339.686,338.24 345.843,334.682 350.431,330.093C356.892,323.632 361.926,314.947 365.531,304.038C369.136,293.129 370.938,279.903 370.938,264.359C370.938,242.822 367.403,226.271 360.334,214.707C353.264,203.143 344.673,195.394 334.56,191.461C327.256,188.652 315.504,187.248 299.305,187.248L256.044,187.248L256.044,344.56Z" style="fill:white;fill-rule:nonzero;"/>
    </g>
    <g transform="matrix(1.38553,0,0,1.38553,-96.3819,-96.3819)">
        <path d="M232.814,360.946L218.902,347.034L218.902,155.034L289.834,155.034C305.846,155.034 318.066,156.018 326.493,157.984C338.292,160.7 348.358,165.616 356.692,172.732C367.554,181.909 375.677,193.637 381.061,207.917C386.445,222.197 389.137,238.513 389.137,256.866C389.137,272.504 387.312,286.363 383.66,298.442C380.008,310.521 375.326,320.517 369.614,328.43C363.902,336.342 357.651,342.569 350.863,347.111C344.074,351.652 335.881,355.093 326.283,357.434C316.685,359.775 305.659,360.946 293.205,360.946L232.814,360.946ZM246.151,336.647L290.115,336.647C303.692,336.647 314.344,335.382 322.069,332.854C329.794,330.326 335.951,326.768 340.539,322.179C347,315.718 352.033,307.033 355.638,296.124C359.243,285.216 361.046,271.989 361.046,256.445C361.046,234.908 357.511,218.358 350.441,206.793C343.372,195.229 334.78,187.48 324.667,183.547C317.363,180.738 305.612,179.334 289.412,179.334L246.151,179.334L246.151,336.647Z" style="fill-rule:nonzero;"/>
    </g>
    <g transform="matrix(1.38553,0,0,1.38553,-96.3819,-96.3819)">
        <path d="M105.278,329.127L90.067,313.916L90.067,123.216L167.319,123.216C183.05,123.216 195.668,125.299 205.172,129.466C214.677,133.633 222.121,140.047 227.505,148.709C232.889,157.37 235.581,166.43 235.581,175.887C235.581,184.689 233.194,192.976 228.418,200.748C223.643,208.52 216.432,214.794 206.788,219.57C219.242,223.222 228.816,229.449 235.511,238.251C242.206,247.053 245.554,257.447 245.554,269.432C245.554,279.077 243.517,288.043 239.444,296.33C235.371,304.617 230.338,311.008 224.345,315.503C218.352,319.997 210.837,323.392 201.801,325.686C192.765,327.98 181.692,329.127 168.583,329.127L105.278,329.127ZM117.316,209.738L161.841,209.738C173.92,209.738 182.582,208.942 187.826,207.35C194.755,205.29 199.975,201.872 203.487,197.097C206.998,192.321 208.754,186.328 208.754,179.118C208.754,172.282 207.115,166.266 203.838,161.069C200.561,155.872 195.879,152.314 189.792,150.394C183.706,148.475 173.265,147.515 158.47,147.515L117.316,147.515L117.316,209.738ZM117.316,304.828L168.583,304.828C177.385,304.828 183.565,304.5 187.123,303.845C193.397,302.721 198.641,300.848 202.855,298.226C207.068,295.604 210.533,291.789 213.249,286.779C215.964,281.769 217.322,275.987 217.322,269.432C217.322,261.754 215.356,255.082 211.423,249.417C207.49,243.752 202.035,239.772 195.059,237.478C188.083,235.184 178.041,234.037 164.931,234.037L117.316,234.037L117.316,304.828Z" style="fill-rule:nonzero;"/>
    </g>
</svg>
